icons/tacky.svg

<?xml version="1.0" encoding="UTF-8" standalone="no"?>
<svg
   width="256"
   height="256"
   viewBox="0 0 256 256"
   version="1.1"
   id="svg13"
   inkscape:version="1.4.4 (dcaf3e7d9e, 2026-05-05)"
   sodipodi:docname="tacky.svg"
   xmlns:inkscape="http://www.inkscape.org/namespaces/inkscape"
   xmlns:sodipodi="http://sodipodi.sourceforge.net/DTD/sodipodi-0.dtd"
   xmlns:xlink="http://www.w3.org/1999/xlink"
   xmlns="http://www.w3.org/2000/svg"
   xmlns:svg="http://www.w3.org/2000/svg">
  <defs
     id="defs8">
    <linearGradient
       id="bubbleGrad">
      <stop
         style="stop-color:#86c837;stop-opacity:1;"
         offset="0"
         id="stop1" />
      <stop
         style="stop-color:#428c00;stop-opacity:1;"
         offset="1"
         id="stop2" />
    </linearGradient>
    <linearGradient
       id="bulbGlass">
      <stop
         style="stop-color:#fffde7;stop-opacity:1;"
         offset="0"
         id="stop3" />
      <stop
         style="stop-color:#ffe082;stop-opacity:1;"
         offset="0.6"
         id="stop4" />
      <stop
         style="stop-color:#ffb300;stop-opacity:1;"
         offset="1"
         id="stop5" />
    </linearGradient>
    <linearGradient
       xlink:href="#bubbleGrad"
       id="linearGradient1"
       gradientUnits="userSpaceOnUse"
       x1="128"
       y1="24"
       x2="128"
       y2="226" />
    <linearGradient
       xlink:href="#bulbGlass"
       id="linearGradient2"
       gradientUnits="userSpaceOnUse"
       x1="128"
       y1="50"
       x2="128"
       y2="146" />
  </defs>
  <sodipodi:namedview
     id="namedview13"
     pagecolor="#ffffff"
     bordercolor="#000000"
     borderopacity="0.25"
     inkscape:showpageshadow="2"
     inkscape:pageopacity="0.0"
     inkscape:pagecheckerboard="0"
     inkscape:deskcolor="#d1d1d1"
     inkscape:zoom="3.4380726"
     inkscape:cx="73.733172"
     inkscape:cy="77.950652"
     inkscape:window-width="1920"
     inkscape:window-height="1029"
     inkscape:window-x="0"
     inkscape:window-y="0"
     inkscape:window-maximized="1"
     inkscape:current-layer="layer1" />
  <g
     inkscape:label="Layer 1"
     inkscape:groupmode="layer"
     id="layer1">
    <path
       id="path8"
       style="fill:url(#linearGradient1);stroke:#2e6b00;stroke-width:3;stroke-linejoin:round"
       d="m 48,24 h 160 a 24,24 0 0 1 24,24 v 120 a 24,24 0 0 1 -24,24 h -98 l -40,34 a 4,4 0 0 1 -6.5,-3.5 l 6.5,-30.5 h -22 a 24,24 0 0 1 -24,-24 V 48 a 24,24 0 0 1 24,-24 z" />
    <path
       id="path9"
       style="fill:#ffffff;opacity:0.18"
       d="m 48,32 h 152 a 16,16 0 0 1 16,16 v 38 q -88,24 -176,0 v -38 a 16,16 0 0 1 8,-16 z" />
    <path
       id="bevel"
       style="fill:none;stroke:#ffffff;stroke-width:2.5;stroke-linecap:round;stroke-opacity:0.45"
       d="m 52,28 h 152 a 20,20 0 0 1 20,20 v 12" />
    <path
       id="path10"
       style="fill:url(#linearGradient2);stroke:#7a4f00;stroke-width:3;stroke-linejoin:round"
       d="m 128,50 c -24,0 -40,18 -40,40 0,14 8,24 16,34 6,8 8,14 8,22 h 32 c 0,-8 2,-14 8,-22 8,-10 16,-20 16,-34 0,-22 -16,-40 -40,-40 z" />
    <path
       id="path11"
       style="fill:none;stroke:#7a4f00;stroke-width:2.5;stroke-linecap:round"
       d="M 111.99706,117.68758 116,100 c 6,-24 15.70665,20.36886 23.71333,0 3.96222,-10.160935 3.14664,11.16391 5.14996,18.10754"
       sodipodi:nodetypes="cccc" />
    <path
       id="path12"
       style="fill:none;stroke:#ffffff;stroke-width:4;stroke-linecap:round;opacity:0.7"
       d="m 104,76 q -4,14 2,28" />
    <path
       id="rect12"
       style="fill:#9e9e9e;stroke:#424242;stroke-width:2"
       d="m 112,148 h 32 c 1.108,0 2,0.892 2,2 v 4 c 0,1.108 -0.892,2 -2,2 h -32 c -1.108,0 -2,-0.892 -2,-2 v -4 c 0,-1.108 0.892,-2 2,-2 z" />
    <path
       id="rect13"
       style="fill:#bdbdbd;stroke:#424242;stroke-width:2"
       d="m 113,158 h 30 c 0.554,0 1,0.446 1,1 v 4 c 0,0.554 -0.446,1 -1,1 h -30 c -0.554,0 -1,-0.446 -1,-1 v -4 c 0,-0.554 0.446,-1 1,-1 z" />
    <path
       id="path13"
       style="fill:#616161;stroke:#424242;stroke-width:2;stroke-linejoin:round"
       d="m 116,166 4,8 h 16 l 4,-8 z" />
  </g>
</svg>

<?xml version="1.0" encoding="UTF-8" standalone="no"?>
<svg
   viewBox="0 0 256 256"
   width="256"
   height="256"
   version="1.1"
   id="svg13"
   sodipodi:docname="chat-logo-v2-green.svg"
   inkscape:version="1.4.4 (dcaf3e7d9e, 2026-05-05)"
   xmlns:inkscape="http://www.inkscape.org/namespaces/inkscape"
   xmlns:sodipodi="http://sodipodi.sourceforge.net/DTD/sodipodi-0.dtd"
   xmlns="http://www.w3.org/2000/svg"
   xmlns:svg="http://www.w3.org/2000/svg">
  <sodipodi:namedview
     id="namedview13"
     pagecolor="#ffffff"
     bordercolor="#000000"
     borderopacity="0.25"
     inkscape:showpageshadow="2"
     inkscape:pageopacity="0.0"
     inkscape:pagecheckerboard="0"
     inkscape:deskcolor="#d1d1d1"
     inkscape:zoom="3.4380726"
     inkscape:cx="73.442312"
     inkscape:cy="146.88462"
     inkscape:window-width="1920"
     inkscape:window-height="1028"
     inkscape:window-x="0"
     inkscape:window-y="0"
     inkscape:window-maximized="1"
     inkscape:current-layer="svg13" />
  <defs
     id="defs8">
    <linearGradient
       id="bubbleGrad"
       x1="0%"
       y1="0%"
       x2="0%"
       y2="100%">
      <stop
         offset="0%"
         stop-color="#86C837"
         id="stop1" />
      <stop
         offset="100%"
         stop-color="#428C00"
         id="stop2" />
    </linearGradient>
    <linearGradient
       id="bulbGlass"
       x1="0%"
       y1="0%"
       x2="0%"
       y2="100%">
      <stop
         offset="0%"
         stop-color="#FFFDE7"
         id="stop3" />
      <stop
         offset="60%"
         stop-color="#FFE082"
         id="stop4" />
      <stop
         offset="100%"
         stop-color="#FFB300"
         id="stop5" />
    </linearGradient>
    <radialGradient
       id="glow"
       cx="50%"
       cy="45%"
       r="55%">
      <stop
         offset="0%"
         stop-color="#FFFFFF"
         stop-opacity="0.95"
         id="stop6" />
      <stop
         offset="60%"
         stop-color="#FFFDE7"
         stop-opacity="0.3"
         id="stop7" />
      <stop
         offset="100%"
         stop-color="#FFFDE7"
         stop-opacity="0"
         id="stop8" />
    </radialGradient>
  </defs>
  <path
     d="M 48 24            H 208            a 24 24 0 0 1 24 24            V 168            a 24 24 0 0 1 -24 24            H 110            L 70 226            a 4 4 0 0 1 -6.5 -3.5            L 70 192            H 48            a 24 24 0 0 1 -24 -24            V 48            a 24 24 0 0 1 24 -24 Z"
     fill="url(#bubbleGrad)"
     stroke="#2E6B00"
     stroke-width="3"
     stroke-linejoin="round"
     id="path8" />
  <path
     d="M 48 32            H 200            a 16 16 0 0 1 16 16            V 86            Q 128 110 40 86            V 48            a 16 16 0 0 1 8 -16 Z"
     fill="#FFFFFF"
     opacity="0.18"
     id="path9" />
  <circle
     cx="128"
     cy="100"
     r="62"
     fill="url(#glow)"
     id="circle9" />
  <path
     d="M 128 50            C 104 50 88 68 88 90            C 88 104 96 114 104 124            C 110 132 112 138 112 146            H 144            C 144 138 146 132 152 124            C 160 114 168 104 168 90            C 168 68 152 50 128 50 Z"
     fill="url(#bulbGlass)"
     stroke="#7A4F00"
     stroke-width="3"
     stroke-linejoin="round"
     id="path10" />
  <path
     d="M 111.99706,117.68758 116,100 c 6,-24 15.70665,20.36886 23.71333,0 3.96222,-10.160935 3.14664,11.16391 5.14996,18.10754"
     fill="none"
     stroke="#7a4f00"
     stroke-width="2.5"
     stroke-linecap="round"
     id="path11"
     sodipodi:nodetypes="cccc" />
  <path
     d="M 104 76            Q 100 90 106 104"
     fill="none"
     stroke="#FFFFFF"
     stroke-width="4"
     stroke-linecap="round"
     opacity="0.7"
     id="path12" />
  <rect
     x="110"
     y="148"
     width="36"
     height="8"
     rx="2"
     fill="#9E9E9E"
     stroke="#424242"
     stroke-width="2"
     id="rect12" />
  <rect
     x="112"
     y="158"
     width="32"
     height="6"
     rx="1"
     fill="#BDBDBD"
     stroke="#424242"
     stroke-width="2"
     id="rect13" />
  <path
     d="M 116 166            L 120 174            H 136            L 140 166 Z"
     fill="#616161"
     stroke="#424242"
     stroke-width="2"
     stroke-linejoin="round"
     id="path13" />
</svg>
